shared/img/tn-comscore.svg

<?xml version="1.0" encoding="UTF-8"?>
<svg width="15px" height="14px" viewBox="0 0 15 14" version="1.1" xmlns="http://www.w3.org/2000/svg" xmlns:xlink="http://www.w3.org/1999/xlink">
    <!-- Generator: sketchtool 47.1 (45422) - http://www.bohemiancoding.com/sketch -->
    <title>DA998E49-D2E6-48E6-BE5C-0737BADB3DE5</title>
    <desc>Created with sketchtool.</desc>
    <defs></defs>
    <g id="V4--RC-Updates" stroke="none" stroke-width="1" fill="none" fill-rule="evenodd">
        <g id="ASSETS--Pill-Icons" transform="translate(-180.000000, -439.000000)" fill-rule="nonzero" fill="#FFFFFF">
            <g id="comscore" transform="translate(180.000000, 439.000000)">
                <path d="M14.6833333,0.683333333 C14.6984286,0.508740185 14.6400221,0.335762364 14.5221792,0.206056157 C14.4043364,0.0763499507 14.2377365,0.00166977142 14.0625,0 C13.7815693,0.034565593 13.5031982,0.0874561055 13.2291667,0.158333333 C12.9166667,0.2125 12.625,0.295833333 12.3291667,0.358333333 C11.825,0.470833333 11.3166667,0.570833333 10.8125,0.683333333 L9.29166667,1.025 L7.55833333,1.40416667 L5.99166667,1.74583333 L4.95416667,1.975 L4.12083333,2.1625 C3.75,2.24583333 3.33333333,2.32083333 2.975,2.41666667 C2.74216399,2.48799056 2.57680728,2.69468646 2.55833333,2.9375 C2.55833333,3.47916667 2.55833333,4.025 2.55833333,4.57083333 L2.55833333,4.57083333 L2.55833333,4.82083333 L2.55833333,4.82083333 L2.5,4.83333333 C2.08333333,4.8875 1.6375,4.93333333 1.20833333,4.99166667 C1.0549445,4.99068214 0.903057566,5.02191123 0.7625,5.08333333 C0.668985877,5.11041015 0.587905356,5.1693778 0.533333333,5.25 C0.437759433,5.39503672 0.396443769,5.56915274 0.416666667,5.74166667 L0.416666667,10.6125 C0.416666667,10.8041667 0.416666667,10.9958333 0.416666667,11.1875 C0.45588663,11.4408203 0.643019917,11.6460103 0.891666667,11.7083333 L2.10416667,11.9208333 L4.1125,12.2708333 L5.95833333,12.6041667 L7.29166667,12.8458333 C7.90833333,12.9541667 8.54166667,13.05 9.14583333,13.175 C9.35400789,13.244873 9.5833881,13.2049156 9.75567437,13.0687675 C9.92796064,12.9326193 10.0198591,12.7186881 10,12.5 C10,11.8333333 10,11.1666667 10,10.5 C10,10.4375 10,10.3791667 10,10.3208333 L10.0291667,10.2916667 L10.0291667,10.2916667 C10.3916667,10.3416667 10.7541667,10.3541667 11.1208333,10.3875 C11.3458333,10.4083333 11.5708333,10.4166667 11.7958333,10.4416667 C12.2125,10.4833333 12.6083333,10.5083333 13.0125,10.5458333 C13.3166667,10.575 13.625,10.5833333 13.9291667,10.6291667 C14.1252199,10.6627756 14.3260396,10.6070839 14.4767808,10.4773014 C14.6275221,10.3475188 14.7124364,10.1572041 14.7083333,9.95833333 C14.7083333,6.91666667 14.7083333,3.875 14.7083333,0.8375 C14.6791667,0.779166667 14.6833333,0.733333333 14.6833333,0.683333333 Z M8.67083333,8.9 C8.48333333,8.9 8.3,8.9 8.1125,8.9 L7.91666667,8.9 C7.5,8.87083333 7.1125,8.85416667 6.70833333,8.84166667 L6.0125,8.80833333 C5.5375,8.77916667 5.04166667,8.75 4.55,8.75 C4.2875,8.75 4.02083333,8.75 3.75416667,8.70833333 C3.67916667,8.70833333 3.64583333,8.67083333 3.65,8.59583333 L3.65,5.95 C3.66424513,5.8883117 3.66424513,5.8241883 3.65,5.7625 L3.6,5.7625 L3.6,5.7375 L3.6,5.7375 C3.67208609,5.74377106 3.74458057,5.74377106 3.81666667,5.7375 C3.85833333,5.7375 3.90833333,5.7375 3.93333333,5.69166667 L3.93333333,5.69166667 C4.01088946,5.69997079 4.08911054,5.69997079 4.16666667,5.69166667 L5.02916667,5.62083333 C5.52083333,5.57916667 6.0125,5.54166667 6.50416667,5.49583333 C6.87916667,5.45833333 7.25833333,5.44166667 7.63333333,5.40416667 C7.89166667,5.38333333 8.15,5.35 8.40833333,5.34166667 C8.66666667,5.33333333 8.62916667,5.34166667 8.62916667,5.55833333 L8.62916667,8.75 C8.62999646,8.80274091 8.64434263,8.85438712 8.67083333,8.9 Z M8.63333333,10.1875 C8.63333333,10.1875 8.65833333,10.1875 8.675,10.1875 C8.65375976,10.2403192 8.64658162,10.2977443 8.65416667,10.3541667 C8.65416667,10.8 8.65416667,11.2458333 8.65416667,11.6916667 C8.65416667,11.8291667 8.63333333,11.8458333 8.5,11.8291667 C8.1875,11.7916667 7.88333333,11.7458333 7.575,11.7 C6.69166667,11.5625 5.80833333,11.4458333 4.925,11.3166667 C4.17916667,11.2041667 3.43333333,11.1041667 2.69166667,10.9916667 L1.5,10.8333333 C1.375,10.8333333 1.35416667,10.7958333 1.35833333,10.6791667 C1.35833333,10.4583333 1.35833333,10.2416667 1.33333333,10.0208333 L1.33333333,6.55416667 C1.33333333,6.375 1.36666667,6.2 1.35833333,6.02083333 C1.35833333,5.95833333 1.37916667,5.91666667 1.44583333,5.91666667 C1.55732353,5.91455212 1.66860831,5.90620576 1.77916667,5.89166667 L2.54166667,5.83333333 L2.54166667,5.9 C2.54020386,5.90686741 2.54020386,5.91396592 2.54166667,5.92083333 C2.52931909,5.98272348 2.52931909,6.04644318 2.54166667,6.10833333 L2.54166667,9.12083333 C2.56453192,9.44750122 2.81990843,9.7099226 3.14583333,9.74166667 C3.39583333,9.77083333 3.64583333,9.7875 3.89583333,9.80833333 C4.3125,9.84583333 4.7,9.875 5.1,9.90833333 L6.5375,10.0333333 L8.075,10.1583333 C8.26284646,10.1834043 8.45215458,10.195932 8.64166667,10.1958333 L8.63333333,10.1875 Z M13.2166667,8.99166667 C13.2166667,9.09166667 13.1875,9.12083333 13.0875,9.10833333 C12.8916667,9.0875 12.6958333,9.08333333 12.5,9.07916667 C11.8333333,9.07916667 11.1708333,9.00833333 10.5041667,9.00416667 C10.3212724,9.00912806 10.1383553,8.99516492 9.95833333,8.9625 C10.0041667,8.91666667 9.99166667,8.85416667 9.99166667,8.79583333 C9.99166667,7.4375 9.99166667,6.075 9.99166667,4.71666667 C9.99265908,4.60872398 9.974314,4.5014758 9.9375,4.4 C9.86247596,4.18411291 9.66905845,4.03132934 9.44166667,4.00833333 C9.31303726,3.99167247 9.18279607,3.99167247 9.05416667,4.00833333 L7.62083333,4.18333333 L5.5375,4.43333333 C5.17916667,4.475 4.825,4.525 4.46666667,4.5625 C4.17916667,4.59166667 3.89166667,4.625 3.60833333,4.67916667 L3.60833333,4.67916667 L3.60833333,4.65833333 L3.60833333,4.65833333 C3.64270781,4.61325527 3.65633761,4.55570725 3.64583333,4.5 L3.64583333,3.475 C3.64583333,3.3375 3.64583333,3.3125 3.80416667,3.29583333 L4.34583333,3.19583333 C4.675,3.14166667 5.00416667,3.075 5.32916667,3.02083333 C5.65416667,2.96666667 6.02916667,2.89166667 6.37916667,2.83333333 C6.47160701,2.8309722 6.56193219,2.80516501 6.64166667,2.75833333 L6.64166667,2.73333333 C6.70602435,2.7291064 6.77004465,2.72075593 6.83333333,2.70833333 L7.82916667,2.525 C8.15,2.47083333 8.47083333,2.42083333 8.7875,2.35416667 C8.82219227,2.35212722 8.85697439,2.35212722 8.89166667,2.35416667 C8.95090199,2.3543394 9.00984912,2.34591838 9.06666667,2.32916667 C9.64166667,2.225 10.2166667,2.11666667 10.7958333,2.01666667 C11.525,1.8875 12.25,1.74583333 12.9791667,1.6 C13.225,1.55833333 13.2208333,1.55 13.2208333,1.8 L13.2208333,8.89166667 C13.2270975,8.92470417 13.2312724,8.95810376 13.2333333,8.99166667 L13.2166667,8.99166667 Z" id="Shape"></path>
            </g>
        </g>
    </g>
</svg>

<svg width="15" height="14" xmlns="http://www.w3.org/2000/svg"><path d="M14.683.683a.63.63 0 0 0-.62-.683c-.281.035-.56.087-.834.158-.312.054-.604.138-.9.2-.504.113-1.012.213-1.517.325l-1.52.342-1.734.38-1.566.34-1.038.23-.833.188c-.371.083-.788.158-1.146.254a.592.592 0 0 0-.417.52v1.884l-.058.012c-.417.054-.863.1-1.292.159a1.096 1.096 0 0 0-.446.091.417.417 0 0 0-.229.167.738.738 0 0 0-.116.492v5.445c.039.254.226.459.475.521l1.212.213 2.008.35 1.846.333 1.334.242c.616.108 1.25.204 1.854.329A.65.65 0 0 0 10 12.5v-2-.18l.03-.028c.362.05.724.062 1.09.095.226.021.45.03.676.055.417.041.812.066 1.216.104.305.029.613.037.917.083a.667.667 0 0 0 .78-.67V.837c-.03-.059-.026-.105-.026-.155zM8.671 8.9h-.754c-.417-.03-.804-.046-1.209-.058l-.696-.034c-.474-.029-.97-.058-1.462-.058-.263 0-.53 0-.796-.042-.075 0-.108-.037-.104-.112V5.95a.417.417 0 0 0 0-.188H3.6v-.024c.072.006.145.006.217 0 .041 0 .091 0 .116-.046.078.008.156.008.234 0l.862-.071c.492-.042.984-.08 1.475-.125.375-.038.754-.054 1.13-.092.258-.02.516-.054.774-.062.259-.009.221 0 .221.216V8.75c.001.053.015.104.042.15zm-.038 1.287h.042a.33.33 0 0 0-.02.167v1.338c0 .137-.022.154-.155.137-.313-.037-.617-.083-.925-.129-.883-.137-1.767-.254-2.65-.383-.746-.113-1.492-.213-2.233-.325L1.5 10.833c-.125 0-.146-.037-.142-.154 0-.22 0-.437-.025-.658V6.554c0-.179.034-.354.025-.533 0-.063.021-.104.088-.104.111-.002.223-.01.333-.025l.763-.059V5.9a.05.05 0 0 0 0 .02.48.48 0 0 0 0 .188v3.013a.67.67 0 0 0 .604.62c.25.03.5.046.75.067.417.038.804.067 1.204.1l1.438.125 1.537.125c.188.025.377.038.567.038l-.009-.008zm4.584-1.195c0 .1-.03.129-.13.116a6.932 6.932 0 0 0-.587-.029c-.667 0-1.33-.07-1.996-.075a2.654 2.654 0 0 1-.546-.041c.046-.046.034-.109.034-.167v-4.08a.904.904 0 0 0-.055-.316.588.588 0 0 0-.495-.392 1.508 1.508 0 0 0-.388 0l-1.433.175-2.084.25c-.358.042-.712.092-1.07.13-.288.029-.575.062-.859.116v-.02a.2.2 0 0 0 .038-.159V3.475c0-.138 0-.163.158-.18l.542-.1c.329-.053.658-.12.983-.174.325-.054.7-.13 1.05-.188a.546.546 0 0 0 .263-.075v-.025c.064-.004.128-.012.191-.025l.996-.183c.321-.054.642-.104.958-.17a.887.887 0 0 1 .105 0c.059 0 .118-.01.175-.026.575-.104 1.15-.212 1.729-.312.729-.13 1.454-.271 2.183-.417.246-.042.242-.05.242.2v7.092a.8.8 0 0 1 .012.1h-.016z" fill-rule="nonzero" fill="#FFF"/></svg>
